X: 20361
T: TO_HO_MAN_HO_TO.
O: Medley Country Dance.
%R: jig
B: W. Hamilton "Universal Tune-Book" Vol. 2 Glasgow 1846 p.37 (and p.37 #1)
S: http://s3-eu-west-1.amazonaws.com/itma.dl.printmaterial/book_pdfs/hamiltonvol2web.pdf
Z: 2016 John Chambers <jc:trillian.mit.edu>
N: Incorrect G at end of bar 88 replaced by A.
N: Padding on last staff to try to match the spacing of preceding lines.
M: 6/8
L: 1/8
K: D
%%stretchstaff 0
% - - - - - - - - - - - - - - - - - - - - - - - - -
|:\
d3 A3 | BAG FED | GAB ABc | d3 d2A :|\
d2d e2f | d2d cBA | d2d e2f | d3 c2A |\
d2d e2f | g2f fed | cBA ABc | d3 d2A |]
|:\
d3 A3 | BAG FED | GAB ABc | d3 d2A :|\
f3 f3 | efe dcB | ABA GFE | D3 D2A |\
d2e f2g | fed cBA | d2e f2a | gec d2A |]
|:\
d3 A3 | BAG FED | GAB ABc | d3 d2A :|\
F2A G2B | ABc d3 | F2A G2B | AFD E3 |\
F2A G2B | ABc d2e | f2d g2f | edc d2A |]
|:\
d3 A3 | BAG FED | GAB ABc | d3 d2A :|\
f3 f3 | efe dcB | ABA GFE | D3 D2A |\
dcd Bcd | e2d cBA | dcd Bcd | edc d2A |]
|:\
d3 A3 | BAG FED | GAB ABc | d3 d2A :|\
a2f f2d | A2a agf | g2e e2c | A2g gfe |\
f2d g2e | a2f bag | fed edc | d3 d2A |]
|:\
d3 A3 | BAG FED | GAB ABc | d3 d2A :|\
f3 f3 | efe dcB | ABA GFE | D3 D2A |\
a2f a2f | efg fed | a2f a2f | gec d2A |]
|:\
d3 A3 | BAG FED | GAB ABc | d3 d2A :|\
f/g/af d2f | e/f/ge c2e | f/g/af d2f | edc d2g |\
f/g/af d2f | e/f/ge c2e | d2f a2f | gec d2A |]
|:\
d3 A3 | BAG FED | GAB ABc | d3 d2A :|\
f2f fef | g2g g2z | fga agf | e2e e2z |\
d2f e2f | d2e d2c | B2A B2c | d2d d2A |]
|:\
d3 A3 | BAG FED | GAB ABc | d3 d2A :|\
f3 f3 | efe dcB | ABA GFE | D3 D2A |\
d2A d2f | d2A d2f | aaa a2f | d3 D2A |]
|:\
d3 A3 | BAG FED | GAB ABc | d3 d2A :|\
d2A F2A | d2A F2A | d2d dcd | e3 e3 |\
f2e d2c | B2d A2F | GAB Adc | d3 d2A |]
|:\
d3 A3 | BAG FED | GAB ABc | d3 D3 :|\
y6 y6 y6 y6 y6 y6 y6 y6 y6 y6 y6 y6 y6 y6 y6 y6 y6 y6 y6 y6
% - - - - - - - - - - - - - - - - - - - - - - - - -

% (Continued from previous page)

%%sep 1 1 500
%%sep 1 1 500

